X: 32005
T: Peeler And The Goat, The
R: jig
M: 6/8
K: Adorian
|:B|"Am"c2A B2G|"Am"A2B c2d|"C"e=fe "G"d2c|"G"B2G GAB|
"Am"c2A B2G|"Am"A2B c2d|"C"efg fed|"Am"e2A A2:|
|:f|"Am"g2f e2d|"Am"e2a a2f|"C"g2e "G"d2c|"G"B2G GAB|
"Am"c2A B2G|"Am"A2B c2d|"C"efg fed|"Am"e2A A2:|

